dist/icons/svgs/expand-solid.svg

<svg xmlns="http://www.w3.org/2000/svg" width="24" height="24" fill="currentcolor" class="icon-expand-solid" viewBox="0 0 24 24">
  <path d="M4.5 3.25H8.25C8.91406 3.25 9.5 3.83594 9.5 4.5C9.5 5.20312 8.91406 5.75 8.25 5.75H5.75V8.25C5.75 8.95312 5.16406 9.5 4.5 9.5C3.79688 9.5 3.25 8.95312 3.25 8.25V4.5C3.25 3.83594 3.79688 3.25 4.5 3.25ZM5.75 15.75V18.25H8.25C8.91406 18.25 9.5 18.8359 9.5 19.5C9.5 20.2031 8.91406 20.75 8.25 20.75H4.5C3.79688 20.75 3.25 20.2031 3.25 19.5V15.75C3.25 15.0859 3.79688 14.5 4.5 14.5C5.16406 14.5 5.75 15.0859 5.75 15.75ZM15.75 3.25H19.5C20.1641 3.25 20.75 3.83594 20.75 4.5V8.25C20.75 8.95312 20.1641 9.5 19.5 9.5C18.7969 9.5 18.25 8.95312 18.25 8.25V5.75H15.75C15.0469 5.75 14.5 5.20312 14.5 4.5C14.5 3.83594 15.0469 3.25 15.75 3.25ZM20.75 15.75V19.5C20.75 20.2031 20.1641 20.75 19.5 20.75H15.75C15.0469 20.75 14.5 20.2031 14.5 19.5C14.5 18.8359 15.0469 18.25 15.75 18.25H18.25V15.75C18.25 15.0859 18.7969 14.5 19.5 14.5C20.1641 14.5 20.75 15.0859 20.75 15.75Z"/>
</svg>

<svg xmlns="http://www.w3.org/2000/svg" width="24" height="24" fill="currentColor" class="icon-expand-solid" viewBox="0 0 24 24">
  <path d="M4.5 3.25h3.75c.664 0 1.25.586 1.25 1.25 0 .703-.586 1.25-1.25 1.25h-2.5v2.5c0 .703-.586 1.25-1.25 1.25-.703 0-1.25-.547-1.25-1.25V4.5c0-.664.547-1.25 1.25-1.25m1.25 12.5v2.5h2.5c.664 0 1.25.586 1.25 1.25 0 .703-.586 1.25-1.25 1.25H4.5c-.703 0-1.25-.547-1.25-1.25v-3.75c0-.664.547-1.25 1.25-1.25.664 0 1.25.586 1.25 1.25m10-12.5h3.75c.664 0 1.25.586 1.25 1.25v3.75c0 .703-.586 1.25-1.25 1.25-.703 0-1.25-.547-1.25-1.25v-2.5h-2.5c-.703 0-1.25-.547-1.25-1.25 0-.664.547-1.25 1.25-1.25m5 12.5v3.75c0 .703-.586 1.25-1.25 1.25h-3.75c-.703 0-1.25-.547-1.25-1.25 0-.664.547-1.25 1.25-1.25h2.5v-2.5c0-.664.547-1.25 1.25-1.25.664 0 1.25.586 1.25 1.25"/>
</svg>
